X: 14
T: Gravel Walks, The
Z: leprecawn
S: https://thesession.org/tunes/42#setting51287
R: reel
M: 4/4
L: 1/8
K: Ador
|:"Am"A2 eA BAeA|A2 eA "G"BAGB|"Am"A2 eA (3 Bcd ef|"C"gedc "G"BAGB:|
"Am"A2 aA gA fA|~A2 eA "G"BAGB|"Am"A2 aA gAfa & x7A|"C"gedc "G"BAGB|
"Am"A2 aA gA fA|~A2 eA "G"BAGB|"Am"ABcd efga|"C"gedc "G"BAGB||
|:"Am"cAAG A3 B|cA ~A2 "G"dBGB|"Am"cAAG A2(3 Bcd|"C"efge "G"dBGB:|
"C"c2 gc ac gc|~c2 gc "G"BAGB|"C"c2 gc acga|gedc "G"BAGB|
"C"c2 gc ac gc|"C"~c2 gc "G"BAGB|"Am"ABcd efga|"C"gedc "G"BAGB||

%-------------------- TUNE SEPARATOR --------------------%

